X: 1
T: Laurie in F
C: by Susan Conger
R: march
S: Fiddle Hell Online 2022-3-26 handout for Fiddle Hell jam session
B: the Portland Collection 3 p.116
Z: 2022 John Chambers <jc:trillian.mit.edu>
M: C|
L: 1/8
K: F
|:\
"F"F3A c2B2 | A2G2 F4 | "Bb"DEF2 "C"C2B,2 | "F"A,2C2  "C"D2E2 ||\
"F"F3A "Bb"B2c2 | "F"A2G2 F4 | "Bb"DED2 "C"C2E2 |1 "F"F6 E2 :|2 "F"F6 ||
|: A2 |\
"Bb"B3A B2c2 | "F"A2G2 F4 | "Bb"B3A B2c2 | "C"G8 ||\
"Bb"D3C D2E2 | "F"F2A2 c4 | "C"ABA2 G2E2 |1 "F"F6 :|2 "F"F8 |]
